X: 272
T:Scotch Bamble,The. JaW.271
M:6/8
L:1/8
Q:120
S:James Winder Ms, Lancashire, 1835-41
R:Jig
O:England
A:Wyresdale,Lancashire
H:1/8
Z:vmp.Chris Partington, Aug 2004
K:C
e|c>dc cGE|cGE cde|cdc cGE|DDD D2e|!
c>dc cGE|cGE cGE|FGF EFE|[Cc][Cc][Cc] [C2c2]:|!
|:e|c3/2d/e/f/ gec|gec c2g|c3/2d/e/f/ gec|afd d2a|!
c3/d/e/f/ gec|gec gec|fgf efe|ccc c2:|]
